X: 305571
M: 2/4
L: 1/16
K: B
(3FGA |\
|: B2 |\
d4 dBfd | cBAB cAf[ec] | B=ege bgeB | ABcd c2Bc |\
dBdf bfdB | cAfc afcA | dBbf afg=e | f=efg fd_ec :|


